X:172
T:score251
L:1/8
Q:1/4=96
M:4/4
I:linebreak $
K:F
 f2- f>c a2- a>f | c'6 b/a/g/f/ | ^f2 g2 z4 |$ c4 e2 g2 | b4- bd'c'b | ^ga a2 z4 | c'4 A3 A |$ %7
 cB B2 z4 | d'4 =B3 B | c2 c'4 _b/a/g/f/ | !trill(!Te8 |$ f2 z2 z4 |] %12
